build/img/svg/phone.svg

<svg width="18" height="18" viewBox="0 0 18 18"  fill="#00B2FF" xmlns="http://www.w3.org/2000/svg">
<path d="M14.2333 11.1503C13.8642 10.7666 13.4191 10.5615 12.9473 10.5615C12.4794 10.5615 12.0304 10.7628 11.6462 11.1465L10.4439 12.3432C10.345 12.2901 10.2461 12.2407 10.151 12.1913C10.014 12.1229 9.88467 12.0583 9.77433 11.9899C8.64819 11.2757 7.62476 10.3449 6.64319 9.14066C6.16762 8.54041 5.84804 8.03514 5.61596 7.52227C5.92793 7.23735 6.21708 6.94102 6.49861 6.6561C6.60514 6.54972 6.71167 6.43955 6.8182 6.33318C7.61715 5.53538 7.61715 4.50205 6.8182 3.70425L5.77955 2.66712C5.66161 2.54935 5.53987 2.42778 5.42573 2.30621C5.19746 2.07067 4.95777 1.82754 4.71047 1.59959C4.34143 1.23489 3.9001 1.04114 3.43595 1.04114C2.97179 1.04114 2.52286 1.23489 2.1424 1.59959C2.1386 1.60339 2.1386 1.60339 2.13479 1.60719L0.841243 2.91026C0.35426 3.39653 0.076528 3.98918 0.0156552 4.6768C-0.0756541 5.78612 0.251537 6.81945 0.502638 7.49568C1.11898 9.15586 2.03968 10.6945 3.41312 12.3432C5.07952 14.3301 7.08452 15.8991 9.37486 17.0046C10.2499 17.4187 11.4179 17.9088 12.7229 17.9924C12.8028 17.9962 12.8865 18 12.9626 18C13.8414 18 14.5795 17.6847 15.1578 17.0578C15.1616 17.0502 15.1692 17.0464 15.173 17.0388C15.3708 16.7995 15.5991 16.5829 15.8388 16.3512C16.0024 16.1954 16.1698 16.0321 16.3334 15.8611C16.71 15.4698 16.9079 15.014 16.9079 14.5467C16.9079 14.0756 16.7062 13.6235 16.322 13.2436L14.2333 11.1503ZM15.5953 15.1507C15.5915 15.1507 15.5915 15.1545 15.5953 15.1507C15.4469 15.3103 15.2947 15.4546 15.1311 15.6142C14.8838 15.8497 14.6327 16.0967 14.3969 16.374C14.0126 16.7843 13.5599 16.978 12.9664 16.978C12.9093 16.978 12.8484 16.978 12.7913 16.9742C11.6614 16.9021 10.6113 16.4614 9.82379 16.0853C7.67042 15.0443 5.77955 13.5665 4.20827 11.6936C2.91092 10.1322 2.04348 8.68857 1.46899 7.13857C1.11517 6.19262 0.985816 5.4556 1.04288 4.76038C1.08093 4.3159 1.25214 3.94739 1.56791 3.63207L2.86527 2.33661C3.05169 2.16185 3.24953 2.06687 3.44356 2.06687C3.68324 2.06687 3.87728 2.21124 3.99902 2.33281C4.00283 2.33661 4.00663 2.3404 4.01044 2.3442C4.24251 2.56075 4.46318 2.78489 4.69526 3.02423C4.8132 3.1458 4.93494 3.26737 5.05669 3.39273L6.09533 4.42987C6.49861 4.83256 6.49861 5.20487 6.09533 5.60757C5.985 5.71774 5.87847 5.82791 5.76814 5.93428C5.44856 6.261 5.14419 6.56492 4.8132 6.86124C4.80559 6.86884 4.79798 6.87264 4.79417 6.88024C4.46698 7.20695 4.52786 7.52607 4.59634 7.74262C4.60014 7.75401 4.60395 7.76541 4.60775 7.77681C4.87787 8.43024 5.25833 9.04568 5.83662 9.7789L5.84043 9.78269C6.89048 11.0744 7.99761 12.0811 9.21887 12.8523C9.37486 12.9511 9.53465 13.0309 9.68683 13.1068C9.82379 13.1752 9.95315 13.2398 10.0635 13.3082C10.0787 13.3158 10.0939 13.3272 10.1091 13.3348C10.2385 13.3994 10.3602 13.4298 10.4858 13.4298C10.8016 13.4298 10.9994 13.2322 11.0641 13.1676L12.3652 11.8684C12.4946 11.7392 12.7 11.5834 12.9397 11.5834C13.1756 11.5834 13.3696 11.7316 13.4876 11.8608C13.4914 11.8646 13.4914 11.8646 13.4952 11.8684L15.5915 13.9616C15.9834 14.3491 15.9834 14.748 15.5953 15.1507Z"/>
<path d="M9.72843 4.28169C10.7252 4.44885 11.6307 4.91992 12.3536 5.64174C13.0764 6.36355 13.5444 7.26772 13.7156 8.26307C13.7575 8.5138 13.9743 8.68856 14.2216 8.68856C14.252 8.68856 14.2787 8.68476 14.3091 8.68096C14.5907 8.63537 14.7771 8.36944 14.7314 8.08831C14.526 6.88402 13.9553 5.7861 13.0841 4.91613C12.2128 4.04615 11.1133 3.4763 9.90725 3.27115C9.62571 3.22556 9.3632 3.41171 9.31374 3.68904C9.26428 3.96637 9.4469 4.2361 9.72843 4.28169Z"/>
<path d="M17.9921 7.94018C17.6535 5.95709 16.7176 4.15255 15.2795 2.71652C13.8414 1.28049 12.0342 0.345932 10.0482 0.00781895C9.77051 -0.0415684 9.50799 0.148383 9.45853 0.425712C9.41288 0.70684 9.5993 0.968972 9.88084 1.01836C11.6538 1.31848 13.2707 2.15807 14.5566 3.43834C15.8426 4.72241 16.6796 6.33699 16.9801 8.10734C17.022 8.35808 17.2388 8.53283 17.4861 8.53283C17.5166 8.53283 17.5432 8.52903 17.5736 8.52523C17.8514 8.48344 18.0416 8.21751 17.9921 7.94018Z"/>
</svg>

<svg width="18" height="18" fill="#00B2FF" xmlns="http://www.w3.org/2000/svg"><path d="M14.233 11.15c-.369-.383-.814-.588-1.286-.588-.468 0-.917.2-1.3.585l-1.203 1.196c-.099-.053-.198-.102-.293-.152a4.832 4.832 0 01-.377-.201c-1.126-.714-2.15-1.645-3.13-2.85-.476-.6-.796-1.105-1.028-1.618.312-.285.601-.581.883-.866l.32-.323c.798-.798.798-1.831 0-2.629l-1.04-1.037c-.117-.118-.24-.24-.353-.36A17.952 17.952 0 004.71 1.6c-.369-.365-.81-.559-1.274-.559-.464 0-.913.194-1.294.559l-.007.007L.84 2.91a2.778 2.778 0 00-.825 1.767c-.092 1.11.236 2.142.487 2.819.616 1.66 1.537 3.198 2.91 4.847a17.9 17.9 0 005.962 4.662c.875.414 2.043.904 3.348.987.08.004.163.008.24.008.878 0 1.617-.315 2.195-.942.004-.008.011-.012.015-.02.198-.239.426-.455.666-.687.163-.156.33-.319.494-.49.377-.391.575-.847.575-1.314 0-.471-.202-.924-.586-1.303l-2.089-2.094zm1.362 4c-.004 0-.004.005 0 0-.148.16-.3.305-.464.464a9.977 9.977 0 00-.734.76c-.384.41-.837.604-1.43.604-.058 0-.119 0-.176-.004-1.13-.072-2.18-.513-2.967-.889a16.898 16.898 0 01-5.616-4.391C2.911 10.132 2.043 8.689 1.47 7.139c-.354-.946-.483-1.683-.426-2.379.038-.444.21-.813.525-1.128l1.297-1.295c.187-.175.385-.27.579-.27.24 0 .433.144.555.266l.011.011c.233.217.453.44.685.68.118.122.24.243.362.369L6.095 4.43c.404.403.404.775 0 1.178-.11.11-.217.22-.327.326-.32.327-.624.63-.955.927-.007.008-.015.012-.019.02-.327.326-.266.645-.198.862l.012.034c.27.653.65 1.269 1.229 2.002l.003.004c1.05 1.291 2.158 2.298 3.379 3.07.156.098.316.178.468.254.137.068.266.133.377.201.015.008.03.02.045.027.13.064.251.095.377.095.316 0 .513-.198.578-.262l1.301-1.3c.13-.129.335-.285.575-.285.236 0 .43.149.548.278l.007.007 2.097 2.094c.391.387.391.786.003 1.189zM9.728 4.282a4.827 4.827 0 012.626 1.36 4.84 4.84 0 011.362 2.621.51.51 0 00.506.426c.03 0 .057-.004.087-.008a.513.513 0 00.422-.593 5.856 5.856 0 00-1.647-3.172 5.871 5.871 0 00-3.177-1.645.516.516 0 00-.593.418.507.507 0 00.414.593zm8.264 3.658a9.635 9.635 0 00-2.713-5.223 9.659 9.659 0 00-5.23-2.71.512.512 0 10-.168 1.011 8.65 8.65 0 014.676 2.42 8.601 8.601 0 012.423 4.67.51.51 0 00.506.425c.03 0 .057-.004.088-.008a.503.503 0 00.418-.585z"/></svg>
